X: 1
T: Queen's Delight - Bucknell 
C: Trad
R: Morris
Q: 1/4=120
M: 6/8
L: 1/8
K: G
Z: ABC transcription by Verge Roller
r: 24
|: "G" d2 G dcB | "Am" cBc "D" ABc | "G" d2 G d2 c | "D" BcA "G" G3 :|
|: "Am" cBc "C" cBc | "Am" ABc "D" def | "G" gfg "C" eag | "D" gfe def |
"G" g2g "C" gfe | "Am" dec "D" ABc | "G" d2 G d2 c | "D" BcA "G" G3 :|
W: Morris formular unknown, however it is a corner dance.
